domfk/img/social/vk-2.svg

<svg width="27" height="27" viewBox="0 0 27 27" fill="none" xmlns="http://www.w3.org/2000/svg">
<g clip-path="url(#clip0_739_128)">
<circle cx="13" cy="14" r="13" fill="#7294C7"/>
<path d="M19.374 17.325C19.374 17.271 19.3201 17.271 19.3201 17.2171C19.1042 16.7854 18.6185 16.2457 17.9709 15.6521C17.6472 15.3823 17.4853 15.1664 17.3773 15.0585C17.2154 14.8426 17.2154 14.6807 17.2694 14.4649C17.3234 14.303 17.5392 14.0332 17.917 13.5475C18.1328 13.2776 18.2408 13.1158 18.4027 12.9539C19.2121 11.8746 19.5899 11.173 19.482 10.8492L19.428 10.7953C19.374 10.7413 19.3201 10.6873 19.2121 10.6873C19.1042 10.6334 18.9423 10.6334 18.7804 10.6873H16.7298C16.6758 10.6873 16.6758 10.6873 16.5679 10.6873C16.5139 10.6873 16.4599 10.6873 16.4599 10.6873H16.406H16.352L16.298 10.7413C16.2441 10.7953 16.2441 10.7953 16.2441 10.8492C16.0282 11.4428 15.7584 11.9285 15.4886 12.4682C15.3267 12.738 15.1648 13.0078 15.0029 13.2237C14.841 13.4395 14.733 13.6014 14.6251 13.7094C14.5172 13.8173 14.4093 13.8713 14.3553 13.9792C14.3013 14.0332 14.1934 14.0871 14.1934 14.0332C14.1394 14.0332 14.0855 14.0332 14.0855 13.9792C14.0315 13.9252 13.9775 13.8713 13.9236 13.8173C13.8696 13.7633 13.8696 13.6554 13.8156 13.5475C13.8156 13.4395 13.8156 13.3316 13.8156 13.2776C13.8156 13.2237 13.8156 13.0618 13.8156 12.9539C13.8156 12.792 13.8156 12.684 13.8156 12.6301C13.8156 12.4682 13.8156 12.2523 13.8156 12.0365C13.8156 11.8206 13.8156 11.6587 13.8156 11.5508C13.8156 11.4428 13.8156 11.2809 13.8156 11.173C13.8156 11.0111 13.8156 10.9032 13.8156 10.8492C13.8156 10.7953 13.7617 10.6873 13.7617 10.6334C13.7077 10.5794 13.6537 10.5254 13.5998 10.4715C13.5458 10.4175 13.4379 10.4175 13.3839 10.3635C13.1141 10.3096 12.7903 10.2556 12.4126 10.2556C11.5491 10.2556 10.9555 10.3096 10.7396 10.4175C10.6317 10.4715 10.5238 10.5254 10.4698 10.6334C10.3619 10.7413 10.3619 10.7953 10.4159 10.7953C10.6857 10.8492 10.9015 10.9572 11.0095 11.119L11.0634 11.227C11.1174 11.2809 11.1174 11.3889 11.1714 11.5508C11.2253 11.7127 11.2253 11.8746 11.2253 12.0904C11.2253 12.4142 11.2253 12.738 11.2253 12.9539C11.2253 13.2237 11.1714 13.3856 11.1714 13.5475C11.1714 13.7094 11.1174 13.8173 11.0634 13.8713C11.0095 13.9792 11.0095 14.0332 10.9555 14.0332C10.9555 14.0332 10.9555 14.0871 10.9015 14.0871C10.8476 14.0871 10.7936 14.1411 10.6857 14.1411C10.6317 14.1411 10.5238 14.0871 10.4698 14.0332C10.3619 13.9792 10.254 13.8713 10.2 13.7633C10.0921 13.6554 9.98414 13.4935 9.87621 13.2776C9.76828 13.0618 9.60638 12.8459 9.49845 12.5221L9.39053 12.3063C9.33656 12.1984 9.22863 11.9825 9.1207 11.7127C9.01277 11.4428 8.90484 11.227 8.79691 10.9572C8.74294 10.8492 8.68899 10.7953 8.63502 10.7413H8.58105C8.58105 10.7413 8.52708 10.6873 8.47312 10.6873C8.41915 10.6873 8.36519 10.6334 8.31123 10.6334H6.36849C6.15263 10.6334 6.0447 10.6873 5.99074 10.7413L5.93677 10.7953C5.93677 10.7953 5.93677 10.8492 5.93677 10.9032C5.93677 10.9572 5.93677 11.0111 5.99074 11.119C6.26056 11.7666 6.58435 12.4142 6.90814 13.0618C7.23193 13.6554 7.55572 14.1951 7.77158 14.5728C8.0414 14.9506 8.25726 15.3283 8.52708 15.6521C8.79691 15.9759 8.9588 16.1918 9.01277 16.2997C9.1207 16.4076 9.17466 16.4616 9.22862 16.5155L9.39053 16.6774C9.49846 16.7854 9.66035 16.9473 9.87621 17.1092C10.0921 17.2711 10.3619 17.4329 10.6317 17.5948C10.9015 17.7567 11.2253 17.8647 11.5491 17.9726C11.9269 18.0805 12.2507 18.1345 12.5745 18.0805H13.3839C13.5458 18.0805 13.6538 18.0266 13.7617 17.9186L13.8156 17.8647C13.8156 17.8107 13.8696 17.8107 13.8696 17.7567C13.8696 17.7028 13.8696 17.6488 13.8696 17.5409C13.8696 17.325 13.8696 17.1631 13.9236 17.0012C13.9775 16.8393 13.9775 16.7314 14.0315 16.6235C14.0855 16.5155 14.1394 16.4616 14.1934 16.4076C14.2474 16.3536 14.3013 16.2997 14.3013 16.2997H14.3553C14.4632 16.2457 14.6251 16.2997 14.733 16.4076C14.8949 16.5155 15.0568 16.6774 15.1648 16.8393C15.2727 17.0012 15.4346 17.1631 15.6505 17.379C15.8663 17.5948 16.0282 17.7567 16.1361 17.8107L16.298 17.9186C16.406 17.9726 16.5139 18.0266 16.6758 18.0805C16.8377 18.1345 16.9456 18.1345 17.0535 18.1345L18.8884 18.0805C19.0502 18.0805 19.2121 18.0266 19.3201 17.9726C19.428 17.9186 19.482 17.8647 19.482 17.7567C19.482 17.7028 19.482 17.5948 19.482 17.5409C19.374 17.4329 19.374 17.379 19.374 17.325Z" fill="white"/>
</g>
<defs>
<clipPath id="clip0_739_128">
<rect width="26" height="26" fill="white" transform="translate(0.198486 0.992432)"/>
</clipPath>
</defs>
</svg>

<svg width="27" height="27" fill="none" xmlns="http://www.w3.org/2000/svg"><g clip-path="url(#clip0_739_128)"><circle cx="13" cy="14" r="13" fill="#7294C7"/><path d="M19.374 17.325c0-.054-.054-.054-.054-.108-.216-.432-.701-.971-1.35-1.565-.323-.27-.485-.486-.593-.593-.162-.216-.162-.378-.108-.594.054-.162.27-.432.648-.918.216-.27.324-.431.486-.593.81-1.08 1.187-1.781 1.079-2.105l-.054-.054c-.054-.054-.108-.108-.216-.108-.108-.054-.27-.054-.432 0h-2.428l-.054.054c-.054.054-.054.054-.054.108-.216.594-.486 1.08-.755 1.62-.162.269-.324.539-.486.755-.162.216-.27.377-.378.485-.108.108-.216.162-.27.27-.054.054-.162.108-.162.054-.054 0-.107 0-.107-.054l-.162-.162c-.054-.054-.054-.162-.108-.27v-2.698c0-.054-.054-.162-.054-.216l-.162-.161c-.054-.054-.162-.054-.216-.108a4.845 4.845 0 00-.971-.108c-.864 0-1.457.054-1.673.162-.108.054-.216.107-.27.215-.108.108-.108.162-.054.162.27.054.486.162.593.324l.054.108c.054.054.054.162.108.324s.054.324.054.54v.863c0 .27-.054.432-.054.593 0 .162-.054.27-.108.324-.054.108-.054.162-.107.162 0 0 0 .054-.054.054s-.108.054-.216.054a.41.41 0 01-.216-.108.65.65 0 01-.27-.27 1.883 1.883 0 01-.324-.485c-.108-.216-.27-.432-.378-.756l-.107-.216a7.63 7.63 0 01-.27-.593c-.108-.27-.216-.486-.324-.756-.054-.108-.108-.162-.162-.216h-.054s-.054-.054-.108-.054-.108-.054-.162-.054H6.368c-.215 0-.323.054-.377.108l-.054.054v.108c0 .054 0 .108.054.216.27.648.593 1.295.917 1.943.324.593.648 1.133.864 1.51.27.379.485.756.755 1.08.27.324.432.54.486.648l.216.215.162.162c.107.108.27.27.485.432.216.162.486.324.756.486.27.162.593.27.917.378.378.108.702.162 1.026.108h.809a.49.49 0 00.378-.162l.054-.054c0-.054.054-.054.054-.108v-.216c0-.216 0-.378.054-.54.053-.162.053-.27.107-.378.054-.108.108-.161.162-.215l.108-.108h.054c.108-.054.27 0 .378.108.162.107.324.27.432.431.108.162.27.324.486.54.215.216.377.378.485.432l.162.108c.108.054.216.108.378.162.162.053.27.053.378.053l1.834-.053c.162 0 .324-.054.432-.108.108-.054.162-.108.162-.216v-.216c-.108-.108-.108-.162-.108-.216z" fill="#fff"/></g><defs><clipPath id="clip0_739_128"><path fill="#fff" transform="translate(.198 .992)" d="M0 0h26v26H0z"/></clipPath></defs></svg>
